X: 49
T: Church Street polka
B: begged borrowed and stolen
B: ralph
B: steve tunes
M:2/4
L:1/8
R: Polka
Q: 1/4=100
K:G
V:1 
d>c|:"G"BG D>D | "C"Ec cA/B/ | cBAG | "D"Fd d/e/d/c/ | "G"BG D>D | "C"Ec cA/B/ | 
c/B/A/G/ "D" F/D/E/F/ | "G" GB G2:||: "G"g2f2 | "C"c3/2 d | ee dd | 
"G"B>A Bc  |1 "G"d>e dB | "D"A3/2 B/A/ | "G"G>A Bc | d2e>f :|2 "G" d>e dB | "D"A3/2 B/A/ |"G" Gg "D"fa | "G"g2 g||
% abcbook-tune_id 62828a3a3e4a999cdb502373


% abcbook-boost 0
% abcbook-tablature 
% abcbook-transpose 
% abcbook-lastupdated 1665481929843
% abcbook-soundfonts 
% abcbook-repeats 3
% abc-sessionorg_id 
% abc-sessionorg_setting 0
% abc-sessionorg_setting_id undefined
% abc-boost 0
% Rhythm Polka
% Titles One title
% Transcriptions Only 1 transcription
% Movement Has some stepwise movement
% Mode major
% Key G
% Time_signature 2/4
% Has_accompaniment_chords No chords

